public/customer/7.svg

<svg width="251" height="116" viewBox="0 0 251 116" fill="none" xmlns="http://www.w3.org/2000/svg">
<path d="M131.348 57.2061C130.208 58.3147 129.639 59.93 129.639 62.052V75.3072H122.043V49.2722H128.072V57.8636C128.361 55.4114 129.089 53.4343 130.256 51.9327C131.839 49.9373 134.118 48.9396 137.093 48.9396H138.09V55.4958H136.191C134.102 55.4958 132.487 56.066 131.348 57.2061Z" fill="white" fill-opacity="0.6"/>
<path fill-rule="evenodd" clip-rule="evenodd" d="M154.374 72.1239C154.7 71.5703 154.969 70.9594 155.182 70.2911V75.3072H161.211V59.3441C161.211 56.937 160.736 54.9733 159.787 53.453C158.837 51.9011 157.444 50.745 155.609 49.9848C153.805 49.2247 151.573 48.8447 148.915 48.8447C147.996 48.8447 147.015 48.8605 145.971 48.8921C144.926 48.9238 143.913 48.9714 142.932 49.0347C141.951 49.098 141.097 49.1614 140.368 49.2247V55.6384C141.349 55.575 142.442 55.5117 143.644 55.4483C144.847 55.385 146.018 55.3375 147.158 55.3059C148.297 55.2742 149.215 55.2583 149.911 55.2583C151.304 55.2583 152.317 55.5909 152.95 56.256C153.583 56.9211 153.899 57.9188 153.899 59.2491V59.3441H149.199C146.888 59.3441 144.847 59.645 143.074 60.2467C141.302 60.8168 139.925 61.7195 138.944 62.9548C137.963 64.1583 137.473 65.7102 137.473 67.6108C137.473 69.3525 137.868 70.8569 138.659 72.1239C139.45 73.3592 140.543 74.3093 141.935 74.9741C143.359 75.6397 145.006 75.9721 146.873 75.9721C148.677 75.9721 150.196 75.6397 151.431 74.9741C152.697 74.3093 153.678 73.3592 154.374 72.1239ZM153.14 68.7032C153.583 67.9749 153.837 66.9613 153.899 65.6628V63.5724H149.152C147.822 63.5724 146.793 63.9049 146.066 64.5701C145.37 65.2035 145.021 66.0745 145.021 67.183C145.021 68.2285 145.37 69.0835 146.066 69.7483C146.793 70.3822 147.822 70.6984 149.152 70.6984C150.006 70.6984 150.766 70.5561 151.431 70.2709C152.127 69.9547 152.697 69.4321 153.14 68.7032Z" fill="white" fill-opacity="0.6"/>
<path d="M176.962 76.2094C174.714 76.2094 172.752 75.8453 171.074 75.1171C169.429 74.3571 168.051 73.343 166.944 72.0766C165.836 70.8096 165.013 69.3842 164.475 67.8009C163.937 66.1853 163.668 64.5225 163.668 62.8122V61.9095C163.668 60.1358 163.953 58.4414 164.522 56.8261C165.093 55.1791 165.931 53.7222 167.039 52.4553C168.146 51.1883 169.524 50.1907 171.169 49.4622C172.847 48.7338 174.762 48.3695 176.914 48.3695C179.256 48.3695 181.33 48.8288 183.134 49.7472C184.938 50.6341 186.378 51.8852 187.454 53.5005C188.531 55.1157 189.132 56.9686 189.258 59.059H181.804C181.677 57.8871 181.203 56.9053 180.38 56.1134C179.588 55.29 178.433 54.8782 176.914 54.8782C175.648 54.8782 174.588 55.195 173.733 55.8284C172.91 56.4618 172.293 57.3328 171.882 58.4414C171.47 59.5499 171.264 60.8643 171.264 62.3846C171.264 63.7782 171.454 65.0451 171.834 66.1853C172.214 67.2938 172.816 68.165 173.638 68.7982C174.493 69.4003 175.601 69.7011 176.962 69.7011C177.975 69.7011 178.829 69.5264 179.525 69.1785C180.254 68.7982 180.823 68.2918 181.235 67.658C181.677 66.993 181.947 66.2328 182.042 65.3776H189.448C189.353 67.5312 188.752 69.432 187.644 71.0787C186.536 72.6943 185.064 73.9606 183.229 74.8797C181.393 75.7664 179.304 76.2094 176.962 76.2094Z" fill="white" fill-opacity="0.6"/>
<path fill-rule="evenodd" clip-rule="evenodd" d="M197.963 75.0692C199.671 75.8298 201.634 76.2094 203.849 76.2094C206.033 76.2094 207.964 75.8298 209.642 75.0692C211.319 74.3092 212.712 73.2486 213.82 71.8865C214.928 70.5244 215.671 68.9722 216.052 67.2305H209.072C208.756 68.0221 208.154 68.6876 207.268 69.2257C206.382 69.7645 205.242 70.0335 203.849 70.0335C202.331 70.0335 201.096 69.7166 200.147 69.0834C199.196 68.4496 198.5 67.5629 198.058 66.4228C197.81 65.7693 197.632 65.0567 197.523 64.2849H216.526V61.7195C216.526 59.3441 216.02 57.1587 215.006 55.1633C213.994 53.1362 212.522 51.5051 210.591 50.2699C208.692 49.0029 206.35 48.3695 203.564 48.3695C201.444 48.3695 199.545 48.7496 197.868 49.5097C196.221 50.2382 194.845 51.2359 193.737 52.5028C192.629 53.7697 191.775 55.2108 191.173 56.8261C190.603 58.4097 190.318 60.0725 190.318 61.8145V62.7646C190.318 64.4433 190.603 66.0903 191.173 67.7058C191.775 69.2891 192.629 70.7301 193.737 72.0288C194.876 73.2958 196.285 74.3092 197.963 75.0692ZM197.58 59.9616C197.699 59.2805 197.874 58.6629 198.105 58.1088C198.58 56.9369 199.276 56.0501 200.194 55.4483C201.111 54.8466 202.235 54.5457 203.564 54.5457C204.862 54.5457 205.938 54.8466 206.793 55.4483C207.68 56.0184 208.344 56.8577 208.787 57.9663C209.027 58.5665 209.202 59.2315 209.312 59.9616H197.58Z" fill="white" fill-opacity="0.6"/>
<path d="M103.956 75.3072V47.4194H94.2226V40.6256H121.522V47.4194H111.741V75.3072H103.956Z" fill="white" fill-opacity="0.6"/>
<path fill-rule="evenodd" clip-rule="evenodd" d="M58.7476 38.2421C47.9203 38.2421 39.143 47.0251 39.143 57.8595C39.143 68.6937 47.9203 77.4771 58.7476 77.4771C69.575 77.4771 78.352 68.6937 78.352 57.8595C78.352 47.0251 69.575 38.2421 58.7476 38.2421ZM34.7865 57.8595C34.7865 44.6175 45.5143 33.8826 58.7476 33.8826C71.9807 33.8826 82.7085 44.6175 82.7085 57.8595C82.7085 71.1016 71.9807 81.8365 58.7476 81.8365C45.5143 81.8365 34.7865 71.1016 34.7865 57.8595Z" fill="white" fill-opacity="0.6"/>
<path fill-rule="evenodd" clip-rule="evenodd" d="M70.7011 49.7307C71.3399 47.7179 69.4322 45.8274 67.427 46.4858L53.7682 50.9706C52.9776 51.2302 52.3598 51.8543 52.108 52.6479L47.8757 65.9884C47.2372 68.0012 49.1447 69.8919 51.1499 69.2331L64.8088 64.7486C65.5994 64.489 66.2171 63.8648 66.4689 63.0712L70.7011 49.7307ZM59.286 60.9733C61.0046 60.9733 62.3978 59.5792 62.3978 57.8595C62.3978 56.1397 61.0046 54.7456 59.286 54.7456C57.5674 54.7456 56.1741 56.1397 56.1741 57.8595C56.1741 59.5792 57.5674 60.9733 59.286 60.9733Z" fill="white" fill-opacity="0.6"/>
</svg>

<svg xmlns="http://www.w3.org/2000/svg" width="251" height="116" fill="none"><path fill="#fff" fill-opacity=".6" d="M131.348 57.206c-1.14 1.109-1.709 2.724-1.709 4.846v13.255h-7.596V49.272h6.029v8.592c.289-2.453 1.017-4.43 2.184-5.931 1.583-1.996 3.862-2.993 6.837-2.993h.997v6.556h-1.899c-2.089 0-3.704.57-4.843 1.71Z"/><path fill="#fff" fill-opacity=".6" fill-rule="evenodd" d="M154.374 72.124a8.96 8.96 0 0 0 .808-1.833v5.016h6.029V59.344c0-2.407-.475-4.37-1.424-5.891-.95-1.552-2.343-2.708-4.178-3.468-1.804-.76-4.036-1.14-6.694-1.14a97.588 97.588 0 0 0-5.983.19c-.981.063-1.835.126-2.564.19v6.413c.981-.063 2.074-.126 3.276-.19 1.203-.063 2.374-.11 3.514-.142 1.139-.032 2.057-.048 2.753-.048 1.393 0 2.406.333 3.039.998s.949 1.663.949 2.993v.095h-4.7c-2.311 0-4.352.301-6.125.903-1.772.57-3.149 1.472-4.13 2.708-.981 1.203-1.471 2.755-1.471 4.656 0 1.742.395 3.246 1.186 4.513.791 1.235 1.884 2.185 3.276 2.85 1.424.666 3.071.998 4.938.998 1.804 0 3.323-.332 4.558-.998a7.09 7.09 0 0 0 2.943-2.85Zm-1.234-3.42c.443-.73.697-1.743.759-3.041v-2.09h-4.747c-1.33 0-2.359.332-3.086.997-.696.634-1.045 1.505-1.045 2.613 0 1.045.349 1.9 1.045 2.565.727.634 1.756.95 3.086.95.854 0 1.614-.142 2.279-.427.696-.316 1.266-.839 1.709-1.568Z" clip-rule="evenodd"/><path fill="#fff" fill-opacity=".6" d="M176.962 76.21c-2.248 0-4.21-.365-5.888-1.093-1.645-.76-3.023-1.774-4.13-3.04a12.59 12.59 0 0 1-2.469-4.276 15.687 15.687 0 0 1-.807-4.989v-.902c0-1.774.285-3.469.854-5.084a13.067 13.067 0 0 1 2.517-4.37c1.107-1.268 2.485-2.265 4.13-2.994 1.678-.728 3.593-1.093 5.745-1.093 2.342 0 4.416.46 6.22 1.378 1.804.887 3.244 2.138 4.32 3.754 1.077 1.615 1.678 3.468 1.804 5.558h-7.454c-.127-1.172-.601-2.154-1.424-2.946-.792-.823-1.947-1.235-3.466-1.235-1.266 0-2.326.317-3.181.95-.823.634-1.44 1.505-1.851 2.613-.412 1.109-.618 2.423-.618 3.944 0 1.393.19 2.66.57 3.8.38 1.109.982 1.98 1.804 2.613.855.602 1.963.903 3.324.903 1.013 0 1.867-.175 2.563-.522.729-.38 1.298-.887 1.71-1.521a5.065 5.065 0 0 0 .807-2.28h7.406c-.095 2.153-.696 4.054-1.804 5.7-1.108 1.616-2.58 2.883-4.415 3.802-1.836.886-3.925 1.33-6.267 1.33Z"/><path fill="#fff" fill-opacity=".6" fill-rule="evenodd" d="M197.963 75.07c1.708.76 3.671 1.14 5.886 1.14 2.184 0 4.115-.38 5.793-1.14 1.677-.76 3.07-1.821 4.178-3.183a10.995 10.995 0 0 0 2.232-4.656h-6.98c-.316.791-.918 1.457-1.804 1.995s-2.026.808-3.419.808c-1.518 0-2.753-.317-3.702-.95-.951-.634-1.647-1.521-2.089-2.661a9.921 9.921 0 0 1-.535-2.138h19.003v-2.566c0-2.375-.506-4.56-1.52-6.556-1.012-2.027-2.484-3.658-4.415-4.893-1.899-1.267-4.241-1.9-7.027-1.9-2.12 0-4.019.38-5.696 1.14-1.647.728-3.023 1.726-4.131 2.993a13.854 13.854 0 0 0-2.564 4.323 14.616 14.616 0 0 0-.855 4.989v.95c0 1.678.285 3.325.855 4.94a14.618 14.618 0 0 0 2.564 4.324c1.139 1.267 2.548 2.28 4.226 3.04Zm-.383-15.108a8.698 8.698 0 0 1 .525-1.853c.475-1.172 1.171-2.059 2.089-2.66.917-.602 2.041-.903 3.37-.903 1.298 0 2.374.3 3.229.902.887.57 1.551 1.41 1.994 2.518.24.6.415 1.265.525 1.996H197.58Z" clip-rule="evenodd"/><path fill="#fff" fill-opacity=".6" d="M103.956 75.307V47.42h-9.733v-6.793h27.299v6.793h-9.781v27.888h-7.785Z"/><path fill="#fff" fill-opacity=".6" fill-rule="evenodd" d="M58.748 38.242c-10.828 0-19.605 8.783-19.605 19.617 0 10.835 8.777 19.618 19.605 19.618 10.827 0 19.604-8.783 19.604-19.618 0-10.834-8.777-19.617-19.604-19.617ZM34.786 57.86c0-13.242 10.728-23.976 23.962-23.976 13.233 0 23.96 10.734 23.96 23.976 0 13.243-10.727 23.977-23.96 23.977-13.234 0-23.962-10.734-23.962-23.977Z" clip-rule="evenodd"/><path fill="#fff" fill-opacity=".6" fill-rule="evenodd" d="M70.701 49.73c.639-2.012-1.269-3.903-3.274-3.244L53.768 50.97a2.59 2.59 0 0 0-1.66 1.677l-4.232 13.34c-.639 2.013 1.269 3.904 3.274 3.245l13.659-4.484a2.59 2.59 0 0 0 1.66-1.678l4.232-13.34ZM59.286 60.974a3.113 3.113 0 0 0 3.112-3.114 3.113 3.113 0 1 0-3.112 3.114Z" clip-rule="evenodd"/></svg>
